X:2239
T:Here's a health to all true lovers 
C:John Joughin, The Garey, Lezayre
C:Traditional
O:Isle of Man
Z:Clague collection
B:Kiaull Vannin #239 
M:3/4 
L:1/8 
Q:70 
K:D 
A F A|d2 ef gf|d2 A A FA|d2 ef ge|d3 d fe|d2 Ac BA|F2 DE FG|A2 FG D2|D3|| 

